X: 10094
T: Didn't She Dance And Dance
R: slide
M: 12/8
K: Gmajor
g2f|:e2d BAF G3 G2A|B2d d2B d2e g2f|e2d FAB G2 GAB d|
[1 efg fed e2f g2f:|2 efg fed e3 e2d||
B2d e2f g2f g2d|BAB d2B d3 B2A|
[1 B2d e2f g2f g2a|bag agf e3 edc:|2 bag agf gfe fed|efg fed e2f g2f|

